X:1
T:There Is Joy Among the Angels
T:There Is Joy Among the Angels
T:Charles Clinton Case
T:Edward Albert Barnes, 1878
T:Public Domain Courtesy of the Cyber Hymnal™
T:Public Domain Courtesy of the Cyber Hymnal™
C:Charles Clinton Case
Z:Public Domain
Z:Courtesy of the Cyber Hymnal™
%%score 1 ( 2 3 )
L:1/8
Q:1/4=95
M:4/4
K:Bb
V:1 treble 
V:2 bass 
V:3 bass 
V:1
 [B,D]>[CE] | [DF]>[EG] [DF]>[^C=E] [DF]<[DB] [DB]>[DB] | [CA]>[DB] [Ec]>[DB] [CA]2 [A,C]>[B,D] | %3
w: 1.~There is|joy a- mong the an- gels, Sing- ing|round the throne a- bove, When re-|
w: 2.~There is|joy a- mong the an- gels, When a|sin- ner heeds the call; When he|
w: 3.~There is|joy a- mong the an- gels, When His|cause is speed- ing on; When the|
 [CE]>[B,D] [CE]>[CA] [Ec]<[DB] [FA]>[EG] | [DF]>[EG] [DF]>[CE] [CE]<[B,D] [DF]>[DF] | %5
w: pent- ant tears are flow- ing, While the|ris- en Lord is show- ing All the|
w: turns to Christ be- liev- ing, And from|Him is love re- ceiv- ing, Grace that|
w: notes of praise are ring- ing, That the|Gos- pel work is bring- ing, Pre- cious|
 [DB]>[DF] [EG]>[EA] [DB]2 [FB]>[FB] | [=Ec]>[EG] [FA]>[F=B] [Ec]2 [Fc]>[Fd] | %7
w: rich- es of His love, All the|rich- es of His love, All the|
w: saves us one and all, Grace that|saves us one and all, Grace that|
w: sheaves for har- vest morn, Pre- cious|sheaves for har- vest morn, Pre- cious|
 [Ge]2 [Ge]2 [Fd]2 [Ec]2 | [DB]6 ||"^Refrain" [Fd]>[Ec] | [DB]4- [DB][Ec] [DB]>[FA] | %11
w: rich- es of His|love.|||
w: saves us one and|all.|There is|joy, * oh, there is|
w: sheaves for har- vest|morn.|||
 [EG]6 [CA]>[DB] | [Ec]2 [Ec]2 [DB]2 [Ec]2 | [Fd]6 [Fd]>[Ec] | [DB]4- [DB][Ec] [DB]>[FA] | %15
w: ||||
w: joy, Joy that|ne- ver can be|told, When a|soul * that long has|
w: ||||
 [EG]2 [EG]4 [Ec]>[Fd] | [Ge]2 [Ge]2 [Fd]2 [Ec]2 | [DB]6 |] %18
w: |||
w: wan- dered, Comes with-|in the Sav- ior’s|fold.|
w: |||
V:2
 [B,,B,]>[B,,B,] | [B,,B,]>[B,,B,] [B,,B,]>[B,,B,] [B,,B,]<[B,,F,] [B,,F,]>[B,,F,] | %2
w: ~ ~|~ ~ ~ ~ ~ ~ ~ ~|
 F,>F, F,>F, F,2 F,>F, | F,>F, F,>F, F,<F, F,>F, | F,>F, F,>F, [B,,F,]<[B,,F,] [B,,B,]>[B,,B,] | %5
w: ~ ~ ~ ~ ~ ~ ~|~ ~ ~ ~ ~ ~ ~ ~|~ ~ ~ ~ ~ ~ ~ ~|
 [B,,F,]>[B,,B,] [E,B,]>[C,F,] [B,,F,]2 [D,F,]>[D,F,] | %6
w: ~ ~ ~ ~ ~ ~ ~|
 [C,G,]>[C,C] [F,C]>[D,G,] [C,G,]2 [F,A,]>B, | [E,B,]2 [E,B,]2 [F,B,]2 F,2 | [B,,F,]6 || %9
w: ~ ~ ~ ~ ~ ~ ~|~ ~ ~ ~|~|
 [B,,F,]>[B,,F,] | [B,,F,]2 [B,,F,]2 [B,,F,]2 [B,,F,]>[D,F,] | %11
w: ~ ~|~ glad joy, there is|
 [E,B,]2 [E,B,]2 [E,B,]2 [E,F,]>[D,F,] | [C,F,]2 [C,A,]2 [F,B,]2 [F,A,]2 | %13
w: joy, glad joy ~ ~|~ ~ ~ ~|
 [B,,B,]>[B,,B,] [B,,B,]>[B,,B,] [B,,B,]2 [B,,B,]>[B,,F,] | [B,,F,]2 [B,,F,]2 [B,,F,]2 [B,,B,]2 | %15
w: ne- ver can be told, When a|soul that long has|
 [E,B,]>[E,B,] [E,B,]>[E,B,] [E,B,]>[E,B,] [E,B,]>[D,B,] | [C,C]2 [C,C]2 [F,B,]2 F,2 | [B,,F,]6 |] %18
w: wan- dered, long has wan- dered, * *|||
V:3
 x2 | x8 | F,>F, F,>F, F,2 F,>F, | F,>F, F,>F, F,<F, F,>F, | F,>F, F,>F, x4 | x8 | x15/2 B,/ | %7
 x6 F,2 | x6 || x2 | x8 | x8 | x8 | x8 | x8 | x8 | x6 F,2 | x6 |] %18

